app/assets/images/icons/active/italics.svg

<?xml version="1.0" encoding="UTF-8" standalone="no"?>
<svg width="32px" height="232px" viewBox="0 0 32 232" version="1.1" xmlns="http://www.w3.org/2000/svg" xmlns:xlink="http://www.w3.org/1999/xlink" xmlns:sketch="http://www.bohemiancoding.com/sketch/ns">
    <title>italics</title>
    <description>Created with Sketch (http://www.bohemiancoding.com/sketch)</description>
    <defs></defs>
    <g id="Actions" stroke="none" stroke-width="1" fill="none" fill-rule="evenodd" sketch:type="MSPage">
        <path d="M25.6035783,148.414 C24.4452396,148.766 22.8483067,149 21.3709904,149 C18.2558466,149 15.6999361,147.514 15.6999361,144.313 C15.6999361,143.727 15.8195527,143.102 15.9391693,142.479 L17.8561022,134.313 L15.1008307,134.118 L15.2603195,131.188 L18.7343131,130.289 L19.6932907,126.305 L24.2060064,126.305 L23.2879233,130.524 L28,130.524 L27.8803834,134.313 L22.2492013,134.313 L20.451885,142.281 C20.3741853,142.594 20.252524,143.024 20.252524,143.453 C20.252524,144.742 21.2104792,145.172 22.5702236,145.172 C23.4474121,145.172 24.2060064,144.977 24.9646006,144.704 L25.6035783,148.414 Z M4,148.414 L8.83271565,124 L13.7053035,124 L8.87258786,148.414 L4,148.414 Z M4,148.414" id="italics--lp-blue" fill="#206FAC" sketch:type="MSShapeGroup"></path>
        <path d="M25.6035783,108.414 C24.4452396,108.766 22.8483067,109 21.3709904,109 C18.2558466,109 15.6999361,107.514 15.6999361,104.313 C15.6999361,103.727 15.8195527,103.102 15.9391693,102.479 L17.8561022,94.313 L15.1008307,94.118 L15.2603195,91.188 L18.7343131,90.289 L19.6932907,86.305 L24.2060064,86.305 L23.2879233,90.524 L28,90.524 L27.8803834,94.313 L22.2492013,94.313 L20.451885,102.281 C20.3741853,102.594 20.252524,103.024 20.252524,103.453 C20.252524,104.742 21.2104792,105.172 22.5702236,105.172 C23.4474121,105.172 24.2060064,104.977 24.9646006,104.704 L25.6035783,108.414 Z M4,108.414 L8.83271565,84 L13.7053035,84 L8.87258786,108.414 L4,108.414 Z M4,108.414" id="italics--white" fill="#FFFFFF" sketch:type="MSShapeGroup"></path>
        <path d="M25.6035783,68.414 C24.4452396,68.766 22.8483067,69 21.3709904,69 C18.2558466,69 15.6999361,67.514 15.6999361,64.313 C15.6999361,63.727 15.8195527,63.102 15.9391693,62.479 L17.8561022,54.313 L15.1008307,54.118 L15.2603195,51.188 L18.7343131,50.289 L19.6932907,46.305 L24.2060064,46.305 L23.2879233,50.524 L28,50.524 L27.8803834,54.313 L22.2492013,54.313 L20.451885,62.281 C20.3741853,62.594 20.252524,63.024 20.252524,63.453 C20.252524,64.742 21.2104792,65.172 22.5702236,65.172 C23.4474121,65.172 24.2060064,64.977 24.9646006,64.704 L25.6035783,68.414 Z M4,68.414 L8.83271565,44 L13.7053035,44 L8.87258786,68.414 L4,68.414 Z M4,68.414" id="italics--body-grey" fill="#67737B" sketch:type="MSShapeGroup"></path>
        <path d="M25.6035783,28.414 C24.4452396,28.766 22.8483067,29 21.3709904,29 C18.2558466,29 15.6999361,27.514 15.6999361,24.313 C15.6999361,23.727 15.8195527,23.102 15.9391693,22.479 L17.8561022,14.313 L15.1008307,14.118 L15.2603195,11.188 L18.7343131,10.289 L19.6932907,6.305 L24.2060064,6.305 L23.2879233,10.524 L28,10.524 L27.8803834,14.313 L22.2492013,14.313 L20.451885,22.281 C20.3741853,22.594 20.252524,23.024 20.252524,23.453 C20.252524,24.742 21.2104792,25.172 22.5702236,25.172 C23.4474121,25.172 24.2060064,24.977 24.9646006,24.704 L25.6035783,28.414 Z M4,28.414 L8.83271565,4 L13.7053035,4 L8.87258786,28.414 L4,28.414 Z M4,28.414" id="italics--title-grey" fill="#3A434E" sketch:type="MSShapeGroup"></path>
    </g>
</svg>

<svg width="32" height="232" viewBox="0 0 32 232" xmlns="http://www.w3.org/2000/svg" xmlns:sketch="http://www.bohemiancoding.com/sketch/ns"><title>italics</title><g sketch:type="MSPage" fill="none"><path d="M25.604 148.414c-1.158.352-2.755.586-4.233.586-3.115 0-5.671-1.486-5.671-4.687 0-.586.12-1.211.239-1.834l1.917-8.166-2.755-.195.159-2.93 3.474-.899.959-3.984h4.513l-.918 4.219h4.712l-.12 3.789h-5.631l-1.797 7.968c-.078.313-.199.743-.199 1.172 0 1.289.958 1.719 2.318 1.719.877 0 1.636-.195 2.394-.468l.639 3.71zm-21.604 0l4.833-24.414h4.873l-4.833 24.414h-4.873zm0 0" fill="#206FAC" sketch:type="MSShapeGroup"/><path d="M25.604 108.414c-1.158.352-2.755.586-4.233.586-3.115 0-5.671-1.486-5.671-4.687 0-.586.12-1.211.239-1.834l1.917-8.166-2.755-.195.159-2.93 3.474-.899.959-3.984h4.513l-.918 4.219h4.712l-.12 3.789h-5.631l-1.797 7.968c-.078.313-.199.743-.199 1.172 0 1.289.958 1.719 2.318 1.719.877 0 1.636-.195 2.394-.468l.639 3.71zm-21.604 0l4.833-24.414h4.873l-4.833 24.414h-4.873zm0 0" fill="#fff" sketch:type="MSShapeGroup"/><path d="M25.604 68.414c-1.158.352-2.755.586-4.233.586-3.115 0-5.671-1.486-5.671-4.687 0-.586.12-1.211.239-1.834l1.917-8.166-2.755-.195.159-2.93 3.474-.899.959-3.984h4.513l-.918 4.219h4.712l-.12 3.789h-5.631l-1.797 7.968c-.078.313-.199.743-.199 1.172 0 1.289.958 1.719 2.318 1.719.877 0 1.636-.195 2.394-.468l.639 3.71zm-21.604 0l4.833-24.414h4.873l-4.833 24.414h-4.873zm0 0" fill="#67737B" sketch:type="MSShapeGroup"/><path d="M25.604 28.414c-1.158.352-2.755.586-4.233.586-3.115 0-5.671-1.486-5.671-4.687 0-.586.12-1.211.239-1.834l1.917-8.166-2.755-.195.159-2.93 3.474-.899.959-3.984h4.513l-.918 4.219h4.712l-.12 3.789h-5.631l-1.797 7.968c-.078.313-.199.743-.199 1.172 0 1.289.958 1.719 2.318 1.719.877 0 1.636-.195 2.394-.468l.639 3.71zm-21.604 0l4.833-24.414h4.873l-4.833 24.414h-4.873zm0 0" fill="#3A434E" sketch:type="MSShapeGroup"/></g></svg>
